!!!SOCIAL_FUNCTION:	dream songs
!!!PDT:	1913
!!!OTL: No_153_The_Thunderbirds.krn
!!!REG: Great_Lakes
!!!LANG: Non-Tone
!!!LING_GROUP: Algonquin
**kern	**kern
*staff2	*staff1
*clefF4	*clefG2
*k[]	*k[]
*M3/4	*M3/4
8r	8g/
=1	=1
8GG/L	4g/
8GG/J	.
8GG/L	4..g/
8GG/J	.
8GG/L	.
8GG/J	.
.	16e/
=2||	=2||
*M2/4	*M2/4
2r	16e/LK
.	8e/
.	16e/Jk
.	4e;/
=3	=3
2r	16c/LK
.	8c/
.	16c/Jk
.	8c/L
.	8A/J
=4	=4
2r	16e/LK
.	8e/
.	16d/Jk
.	4e/
=5	=5
2r	8.e/L
.	16d/Jk
.	16e/LK
.	8e/
.	16e/Jk
=6	=6
2r	16c/LK
.	8c/
.	16c/Jk
.	8c/L
.	8A/J
=7||	=7||
*M3/4	*M3/4
2.r	16e/LK
.	8e/
.	32d/LL
.	32e/JJJ
.	4.e/
.	8c/
*	*clefF4
=8||	=8||
*M2/4	*M2/4
2r	4c\
.	4A\
=9	=9
2r	16G\LK
.	8G\
.	16G\Jk
.	8G\L
.	8E\J
=10||	=10||
*M3/4	*M3/4
2.r	16c\LK
.	8c\
.	16c\Jk
.	[4c\
.	16c\LL]
.	16d\
.	16c\
.	16A\JJ
=11||	=11||
*M2/4	*M2/4
2r	16G\LK
.	8.G\J
.	8E\L
.	8D\J
=12||	=12||
*M3/4	*M3/4
2.r	4C/
.	4.C/
.	8C/
=13	=13
2.r	2C/
.	8.c\L
.	16c\Jk
=14	=14
2.r	4e\
.	8.e\L
.	16e\Jk
.	8.e\L
.	16e\Jk
=15	=15
2.r	16e\LK
.	8c\
.	16c\Jk
.	8.c\L
.	16c\Jk
.	8.c\L
.	16G\Jk
=16	=16
2.r	16e\LK
.	8e\
.	16e\Jk
.	4.e\
.	8c\
=17||	=17||
*M2/4	*M2/4
2r	4c\
.	4A\
=18	=18
2r	16G\LK
.	8G\
.	16G\Jk
.	8G\L
.	8E\J
=19||	=19||
*M3/4	*M3/4
2.r	16c\LK
.	8c\
.	16c\Jk
.	4.c\
.	8A\
=20||	=20||
*M2/4	*M2/4
2r	16G\LK
.	8.G\J
.	8.E\L
.	16D\Jk
=21	=21
2r	2C/
==	==
*-	*-
